apps/scalable/youtube-circle.svg

<svg height="48" width="48" xmlns="http://www.w3.org/2000/svg" xmlns:xlink="http://www.w3.org/1999/xlink"><linearGradient id="a"><stop offset="0" stop-color="#ececec"/><stop offset="1" stop-color="#fefefe"/></linearGradient><linearGradient id="b"><stop offset="0" stop-color="#e42238"/><stop offset="1" stop-color="#f55"/></linearGradient><linearGradient id="c" gradientUnits="userSpaceOnUse" x1="408.612432428568" x2="408.612432428568" xlink:href="#b" y1="546.632021160609" y2="499.8320688606"/><linearGradient id="d" gradientUnits="userSpaceOnUse" x1="408.722575131199" x2="408.919603856987" xlink:href="#a" y1="546.972998089168" y2="500.839997899404"/><linearGradient id="e" gradientUnits="userSpaceOnUse" x1="408.571901428608" x2="408.571901428608" xlink:href="#a" y1="545.648718453504" y2="500.7986281536"/><clipPath id="f"><circle cx="24.040997" cy="24.034031" r="24"/></clipPath><linearGradient id="g" gradientUnits="userSpaceOnUse" x1="24.041005428568" x2="24.041005428568" xlink:href="#b" y1="46.834021160609" y2=".0340688606"/><g transform="translate(-384.57143 -499.798)"><circle cx="408.61243" cy="523.83203" fill="url(#c)" r="24"/><path clip-path="url(#f)" d="m23.923828 15.912109c-3.049099-.012775-6.111246.080355-8.941406.31836-1.75609.19682-2.960597 2.336087-3.091797 3.960937-.27765 3.41296-.27765 5.354618 0 8.767578.0851 1.04174.599404 2.300577 1.427734 3.128907l35.353516 35.355468c.46366.46366 1.026269.792047 1.667969.873047 5.72744.37381 12.28211.42719 17.80664 0 1.73319-.30056 2.96102-2.377103 3.09375-4.001953.27612-3.41449.276167-5.567509-.001953-8.980469h.001953c-.08376-1.00208-.484293-2.165944-1.246093-2.927734l-35.355469-35.355469c-.47344-.47345-1.08649-.792232-1.84961-.820312-2.779805-.186905-5.816135-.305585-8.865234-.31836z" fill-opacity=".078431" stroke-width="1.317422" transform="translate(384.57143 499.798)"/><path d="m420.45574 519.77578c-.13581-1.62485-1.10463-3.67386-3.09566-3.74712-5.55961-.37381-12.14604-.47601-17.80636 0-1.75609.19682-2.95985 2.33584-3.09105 3.96069-.27765 3.41296-.27765 5.35521 0 8.76817.13274 1.62485 1.30601 3.77611 3.09412 4.00188 5.72744.37381 12.28184.42719 17.80637 0 1.73319-.30056 2.96138-2.37703 3.09411-4.00188.27612-3.41449.27612-5.56878-.002-8.98174zm-15.04949 8.92683v-8.74989l7.62846 4.37569z" fill="url(#d)" stroke-width="1.317422"/><path d="m408.57143 499.798c-13.24299 0-24 10.75701-24 24s10.75701 24 24 24 24-10.75701 24-24-10.75701-24-24-24zm0 2c12.16219 0 22 9.83781 22 22 0 12.16218-9.83781 22-22 22-12.16218 0-22-9.83782-22-22 0-12.16219 9.83782-22 22-22z" fill="url(#e)"/></g></svg>

<?xml version="1.0" encoding="UTF-8" standalone="no"?>
<!-- Created with Inkscape (http://www.inkscape.org/) -->

<svg
   xmlns:dc="http://purl.org/dc/elements/1.1/"
   xmlns:cc="http://creativecommons.org/ns#"
   xmlns:rdf="http://www.w3.org/1999/02/22-rdf-syntax-ns#"
   xmlns:svg="http://www.w3.org/2000/svg"
   xmlns="http://www.w3.org/2000/svg"
   xmlns:xlink="http://www.w3.org/1999/xlink"
   xmlns:sodipodi="http://sodipodi.sourceforge.net/DTD/sodipodi-0.dtd"
   xmlns:inkscape="http://www.inkscape.org/namespaces/inkscape"
   width="48"
   height="48"
   id="svg5453"
   version="1.1"
   inkscape:version="0.91 r13725"
   sodipodi:docname="youtube-circle.svg">
  <sodipodi:namedview
     id="base"
     pagecolor="#5a5a5a"
     bordercolor="#666666"
     borderopacity="1.0"
     inkscape:pageopacity="0"
     inkscape:pageshadow="2"
     inkscape:zoom="8.92"
     inkscape:cx="19.574958"
     inkscape:cy="21.054692"
     inkscape:document-units="px"
     inkscape:current-layer="layer1"
     showgrid="false"
     fit-margin-top="0"
     fit-margin-left="0"
     fit-margin-right="0"
     fit-margin-bottom="0"
     inkscape:window-width="1366"
     inkscape:window-height="642"
     inkscape:window-x="0"
     inkscape:window-y="33"
     inkscape:window-maximized="1"
     inkscape:showpageshadow="false"
     borderlayer="true"
     showguides="false"
     showborder="true">
    <inkscape:grid
       id="grid4063"
       type="xygrid" />
    <sodipodi:guide
       id="guide4146"
       orientation="4,0"
       position="1.1650391e-05,47.999996" />
    <sodipodi:guide
       id="guide4148"
       orientation="0,48"
       position="1.1650391e-05,43.999996" />
    <sodipodi:guide
       id="guide4150"
       orientation="-4,0"
       position="48.000012,43.999996" />
    <sodipodi:guide
       id="guide4152"
       orientation="0,-48"
       position="48.000012,47.999996" />
    <sodipodi:guide
       id="guide4154"
       orientation="4,0"
       position="1.1650391e-05,4.0000264" />
    <sodipodi:guide
       id="guide4156"
       orientation="0,48"
       position="1.1650391e-05,2.6367188e-05" />
    <sodipodi:guide
       id="guide4158"
       orientation="-4,0"
       position="48.000012,2.6367188e-05" />
    <sodipodi:guide
       id="guide4160"
       orientation="0,-48"
       position="48.000012,4.0000264" />
    <sodipodi:guide
       id="guide4162"
       orientation="0,-4"
       position="48.000012,48.000026" />
    <sodipodi:guide
       id="guide4164"
       orientation="48,0"
       position="44.000012,48.000026" />
    <sodipodi:guide
       id="guide4166"
       orientation="0,4"
       position="44.000012,2.6367188e-05" />
    <sodipodi:guide
       id="guide4168"
       orientation="-48,0"
       position="48.000012,2.6367188e-05" />
    <sodipodi:guide
       id="guide4170"
       orientation="0,-4"
       position="4.0000422,48.000026" />
    <sodipodi:guide
       id="guide4172"
       orientation="48,0"
       position="4.2167969e-05,48.000026" />
    <sodipodi:guide
       id="guide4174"
       orientation="0,4"
       position="4.2167969e-05,2.6367188e-05" />
    <sodipodi:guide
       id="guide4176"
       orientation="-48,0"
       position="4.0000422,2.6367188e-05" />
    <sodipodi:guide
       id="guide4153"
       orientation="39.999969,0"
       position="20,30" />
    <sodipodi:guide
       id="guide4155"
       orientation="0,8"
       position="20.000012,4.0000264" />
    <sodipodi:guide
       id="guide4157"
       orientation="-39.999969,0"
       position="25,30" />
    <sodipodi:guide
       id="guide4159"
       orientation="0,-8"
       position="28.000012,43.999996" />
    <sodipodi:guide
       id="guide4342"
       orientation="5,0"
       position="22,11" />
  </sodipodi:namedview>
  <defs
     id="defs5455">
    <linearGradient
       inkscape:collect="always"
       id="linearGradient4403">
      <stop
         style="stop-color:#ececec;stop-opacity:1"
         offset="0"
         id="stop4405" />
      <stop
         style="stop-color:#fefefe;stop-opacity:1"
         offset="1"
         id="stop4407" />
    </linearGradient>
    <linearGradient
       id="linearGradient4320"
       inkscape:collect="always">
      <stop
         id="stop4322"
         offset="0"
         style="stop-color:#e42238;stop-opacity:1" />
      <stop
         id="stop4324"
         offset="1"
         style="stop-color:#ff5555;stop-opacity:1" />
    </linearGradient>
    <linearGradient
       inkscape:collect="always"
       xlink:href="#linearGradient4320"
       id="linearGradient4489"
       x1="408.57144"
       y1="542.79797"
       x2="408.57144"
       y2="503.798"
       gradientUnits="userSpaceOnUse"
       gradientTransform="matrix(1.1999997,0,0,1.1999997,-81.673173,-104.72538)" />
    <linearGradient
       id="linearGradient8311-06">
      <stop
         offset="0"
         style="stop-color:#a9a3d4;stop-opacity:1"
         id="stop8313-6" />
      <stop
         id="stop4462"
         style="stop-color:#87baff;stop-opacity:1"
         offset="0.47001833" />
      <stop
         offset="1"
         style="stop-color:#89ec85;stop-opacity:1"
         id="stop8315-2" />
    </linearGradient>
    <linearGradient
       gradientTransform="matrix(0.04800427,0,0,0.04800427,396.25438,512.17958)"
       y2="-236.22028"
       x2="263.83536"
       y1="724.7984"
       x1="259.73096"
       gradientUnits="userSpaceOnUse"
       id="linearGradient4401"
       xlink:href="#linearGradient4403"
       inkscape:collect="always" />
    <linearGradient
       y2="503.798"
       x2="408.57144"
       y1="542.79797"
       x1="408.57144"
       gradientTransform="matrix(1.1500032,0,0,1.1500032,-61.286562,-78.570684)"
       gradientUnits="userSpaceOnUse"
       id="linearGradient3388"
       xlink:href="#linearGradient4403"
       inkscape:collect="always" />
    <clipPath
       clipPathUnits="userSpaceOnUse"
       id="clipPath3580">
      <circle
         style="opacity:1;fill:url(#linearGradient3584);fill-opacity:1;stroke:none;stroke-width:1.31742239;stroke-linecap:butt;stroke-linejoin:round;stroke-miterlimit:4;stroke-dasharray:none;stroke-opacity:1"
         id="circle3582"
         cx="24.040997"
         cy="24.034031"
         r="24" />
    </clipPath>
    <linearGradient
       inkscape:collect="always"
       xlink:href="#linearGradient4320"
       id="linearGradient3584"
       gradientUnits="userSpaceOnUse"
       gradientTransform="matrix(1.1999997,0,0,1.1999997,-466.2446,-604.52338)"
       x1="408.57144"
       y1="542.79797"
       x2="408.57144"
       y2="503.798" />
  </defs>
  <metadata
     id="metadata5458">
    <rdf:RDF>
      <cc:Work
         rdf:about="">
        <dc:format>image/svg+xml</dc:format>
        <dc:type
           rdf:resource="http://purl.org/dc/dcmitype/StillImage" />
        <dc:title></dc:title>
      </cc:Work>
    </rdf:RDF>
  </metadata>
  <g
     transform="translate(-384.57143,-499.798)"
     id="layer1"
     inkscape:groupmode="layer"
     inkscape:label="Layer 1">
    <circle
       r="24"
       cy="523.83203"
       cx="408.61243"
       id="path4173"
       style="opacity:1;fill:url(#linearGradient4489);fill-opacity:1;stroke:none;stroke-width:1.31742239;stroke-linecap:butt;stroke-linejoin:round;stroke-miterlimit:4;stroke-dasharray:none;stroke-opacity:1" />
    <path
       style="fill:#000000;fill-opacity:0.07843137;stroke-width:1.31742239;stroke-miterlimit:4;stroke-dasharray:none"
       d="M 23.923828 15.912109 C 20.874729 15.899334 17.812582 15.992464 14.982422 16.230469 C 13.226332 16.427289 12.021825 18.566556 11.890625 20.191406 C 11.612975 23.604366 11.612975 25.546024 11.890625 28.958984 C 11.975725 30.000724 12.490029 31.259561 13.318359 32.087891 L 48.671875 67.443359 C 49.135535 67.907019 49.698144 68.235406 50.339844 68.316406 C 56.067284 68.690216 62.621954 68.743596 68.146484 68.316406 C 69.879674 68.015846 71.107504 65.939303 71.240234 64.314453 C 71.516354 60.899963 71.516401 58.746944 71.238281 55.333984 L 71.240234 55.333984 C 71.156474 54.331904 70.755941 53.16804 69.994141 52.40625 L 34.638672 17.050781 C 34.165232 16.577331 33.552182 16.258549 32.789062 16.230469 C 30.009257 16.043564 26.972927 15.924884 23.923828 15.912109 z "
       transform="translate(384.57143,499.798)"
       id="path3438"
       clip-path="url(#clipPath3580)" />
    <path
       inkscape:connector-curvature="0"
       style="opacity:1;fill:url(#linearGradient4401);fill-opacity:1;stroke-width:1.31742239;stroke-miterlimit:4;stroke-dasharray:none"
       d="m 420.45574,519.77578 c -0.13581,-1.62485 -1.10463,-3.67386 -3.09566,-3.74712 -5.55961,-0.37381 -12.14604,-0.47601 -17.80636,0 -1.75609,0.19682 -2.95985,2.33584 -3.09105,3.96069 -0.27765,3.41296 -0.27765,5.35521 0,8.76817 0.13274,1.62485 1.30601,3.77611 3.09412,4.00188 5.72744,0.37381 12.28184,0.42719 17.80637,0 1.73319,-0.30056 2.96138,-2.37703 3.09411,-4.00188 0.27612,-3.41449 0.27612,-5.56878 -0.002,-8.98174 z m -15.04949,8.92683 0,-8.74989 7.62846,4.37569 -7.62846,4.3742 z"
       id="path4326" />
    <path
       inkscape:connector-curvature="0"
       id="circle3386"
       d="m 408.57143,499.798 c -13.24299,0 -24,10.75701 -24,24 0,13.24299 10.75701,24 24,24 13.24299,0 24,-10.75701 24,-24 0,-13.24299 -10.75701,-24 -24,-24 z m 0,2 c 12.16219,0 22,9.83781 22,22 0,12.16218 -9.83781,22 -22,22 -12.16218,0 -22,-9.83782 -22,-22 0,-12.16219 9.83782,-22 22,-22 z"
       style="color:#000000;font-style:normal;font-variant:normal;font-weight:normal;font-stretch:normal;font-size:medium;line-height:normal;font-family:sans-serif;text-indent:0;text-align:start;text-decoration:none;text-decoration-line:none;text-decoration-style:solid;text-decoration-color:#000000;letter-spacing:normal;word-spacing:normal;text-transform:none;direction:ltr;block-progression:tb;writing-mode:lr-tb;baseline-shift:baseline;text-anchor:start;white-space:normal;clip-rule:nonzero;display:inline;overflow:visible;visibility:visible;opacity:1;isolation:auto;mix-blend-mode:normal;color-interpolation:sRGB;color-interpolation-filters:linearRGB;solid-color:#000000;solid-opacity:1;fill:url(#linearGradient3388);fill-opacity:1;fill-rule:nonzero;stroke:none;stroke-width:1.99986136;stroke-linecap:butt;stroke-linejoin:round;stroke-miterlimit:4;stroke-dasharray:none;stroke-dashoffset:0;stroke-opacity:1;color-rendering:auto;image-rendering:auto;shape-rendering:auto;text-rendering:auto;enable-background:accumulate" />
  </g>
</svg>
